X:1
T:Haste to the Wedding
C:from Mary Lou Knack
C:arr. T. Traub 10-31-2002
C:British Isles, New England
M:6/8
R:jig
K:D
P:Part A
|A| "D"AFA Agf| "A7"ede "Bm"fdB| "D"AFA AdF| "Em"EFE "A"EFG
| "D"AFA Aaf|"A7"ede "G"fdB| "A"AFA "A7"faf| "D"ded d2 :|
P:Part B
|: a| "D"afa afa| "G"bgb bag|"D"fga "Bm"agf| "Em"gfg "A"efg
|"D"a3 "Bm"f3| "A"ede "G"fdB| "A"AFA faf| "D"ded d2 :||
